!!!COM: Beethoven, Ludwig van
!!!CDT: 1770///-1827///
!!!OTL: Piano Sonata no. 16 in G major
!!!OPS: 31
!!!ONM: 1
!!!OMV: 3
!!!OMD: Rondo: Allegretto
!!!AGN: Rondo
**kern	**kern	**dynam
*staff2	*staff1	*staff1/2
*Ipiano	*Ipiano	*Ipiano
*clefF4	*clefG2	*clefG2
*k[f#]	*k[f#]	*k[f#]
*G:	*G:	*G:
*M4/4	*M4/4	*M4/4
*MM160	*MM160	*MM160
.	(eeq/	.
2r	(8dd\L)	p
.	8cc#\	.
.	8dd\	.
.	8ee\J)	.
=1	=1	=1
*^	*^	*
4r	[1D	4dd'/	4r	.
4B/	.	4d/	([2.d\	.
4c/	.	4e/	.	.
4A/	.	4f#/	.	.
=2	=2	=2	=2	=2
4B/	2.D\]	2g/	1d_	.
4G/	.	.	.	.
4F#/	.	8b/L	.	.
.	.	8a/	.	.
4D/	[4D\	8g/	.	.
.	.	8a/J	.	.
=3	=3	=3	=3	=3
4G/	1D]	4b/	4d\]	.
4F#/	.	4g/	2g\	.
4E/	.	4cc#/	.	.
4c#/	.	4a/	4g\	.
=4	=4	=4	=4	=4
4D/	[1D	2dd/)	2f#\	.
2d/	.	.	.	.
.	.	(eeq/	.	.
.	.	(8dd/L)	2r	>
.	.	8cc#/	.	.
4c#/	.	8dd/	.	.
.	.	8ee/J)	.	.
=5	=5	=5	=5	=5
4cn/	1D_	4dd'/	4r	.
4B/	.	(4d/	2.d\	.
4c/	.	4e/	.	.
4A/	.	4f#/	.	.
=6	=6	=6	=6	=6
4B/	1D]	2g/	[1d	.
4G/	.	.	.	.
4F#/	.	8b/L	.	>
.	.	8a/	.	.
4D/	.	8g/	.	.
.	.	8a/J	.	.
*v	*v	*	*	*
=7	=7	=7	=7
4G\	4b/	4d\]	.
4E\	4g/	[4e\	.
4C\	4a/ 4cc/	4e\]	.
4D\	4f#/ 4a/)	4c\	.
*	*v	*v	*
=8	=8	=8
*^	*	*
4r	4GG/	4B/ 4g/	<
2G/	[2.G\	4r	.
.	.	4b\ (4gg\	.
4A/	.	4cc\ 4ff#\	.
=9	=9	=9	=9
4B/	1G_	4dd\ 4ffn\	.
4c/	.	4g\ 4ee\)	f
4e-/	.	4g'\ 4cc'\ 4ee-'\	.
4f#/	.	4a'\ 4cc'\ 4ee-'\	.
=10	=10	=10	=10
*	*	*^	*
4g^/	4G\]	2r	4cc\ (4ee-\	.
4G/	2.r	.	4b\ 4dd\)	p
(4d\	.	(8een/L	2f#\ 2a\	.
.	.	8dd/	.	.
4D\	.	8cc#/	.	.
.	.	8dd/J)	.	.
*v	*v	*	*	*
=11	=11	=11	=11
4G\	4b/	2d\ 2g\	.
4GG/	4dd/	.	.
4D/	8ee/L	2f#\ 2a\	.
.	8dd/	.	.
4DD/)	8cc#/	.	.
.	8dd/J	.	.
=12	=12	=12	=12
*^	*	*	*
4GG/	4r	4b/	4d\ 4g\	<
2G/	[2.G\	2.r	4r	.
.	.	.	4b\ (4gg\	.
4A/	.	.	4cc\ 4ff#\	.
*	*	*v	*v	*
=13	=13	=13	=13
4B/	1G_	4dd\ 4ffn\	<
4c/	.	4g\ 4ee\)	.
4e-/	.	4g'\ 4cc'\ 4ee-'\	f
4f#/	.	4a'\ 4cc'\ 4ee-'\	.
*v	*v	*	*
=14	=14	=14
*	*^	*
4G\] 4g\	2r	4cc\ (4ee-\	>
4G\	.	4b\ 4dd\)	.
(4d\	(8een/L	2f#\ 2a\	p
.	8dd/	.	.
4D\	8cc#/	.	.
.	8dd/J)	.	.
=15	=15	=15	=15
4G\	4b/	2d\ 2g\	.
4GG/	4dd/	.	.
4D/	8ee/L	2f#\ 2a\	.
.	8dd/	.	.
4DD/)	8cc#/	.	.
.	8dd/J	.	.
*	*v	*v	*
=16	=16	=16
(4GG/	4d/ 4g/ 4b/	.
4GGG/)	4r	.
(Eq/	.	.
(8D/L)	2r	f
8C#/	.	.
8D/	.	.
8E/J)	.	.
=17	=17	=17
*^	*	*
4D'/	4r	12r	.
.	.	12bb\L	f
.	.	12ccc\J	.
(4DD/	2.DD\	12ddd\L	.
.	.	12ccc\	.
.	.	12bb\J	.
4EE/	.	12ccc\L	.
.	.	12aa\	.
.	.	12bb\J	.
4FF#/	.	12ccc\L	.
.	.	12bb\	.
.	.	12aa\J	.
=18	=18	=18	=18
2GG/	[1DD	12bb\L	.
.	.	12gg\	.
.	.	12aa\J	.
.	.	12bb\L	.
.	.	12aa\	.
.	.	12gg\J	.
8BB/L	.	12ff#\L	.
.	.	12ee\	.
8AA/	.	.	.
.	.	12dd\J	.
8GG/	.	12cc\L	.
.	.	12b\	.
8AA/J	.	.	.
.	.	12a\J	.
=19	=19	=19	=19
4BB/	2DD\]	12g\L	.
.	.	12dd\	.
.	.	12cc#\J	.
4GG/	.	12dd\L	.
.	.	12b\	.
.	.	12a\J	.
4C#/	2DD\	12g\L	.
.	.	12ee\	.
.	.	12dd#\J	.
4AA/	.	12ee\L	.
.	.	12cc#\	.
.	.	12g\J	.
=20	=20	=20	=20
2D/)	2DD\	12f#\L	.
.	.	12ddn\	.
.	.	12cc#\J	.
.	.	12dd\L	.
.	.	12a\	.
.	.	12f#\J	.
*v	*v	*	*
(Eq/	.	.
*^	*	*
(8D/L)	2r	4d/	.
8C#/	.	.	.
8D/	.	4r	.
8E/J)	.	.	.
=21	=21	=21	=21
4D'/	4r	12r	.
.	.	12bb\L	.
.	.	12ccc\J	.
4DD/	([2.DD\	12ddd\L	.
.	.	12ccc\	.
.	.	12bb\J	.
4EE/	.	12ccc\L	.
.	.	12aa\	.
.	.	12bb\J	.
4FF#/	.	12ccc\L	.
.	.	12bb\	.
.	.	12aa\J	.
=22	=22	=22	=22
2GG/	1DD_	12bb\L	.
.	.	12gg\	.
.	.	12aa\J	.
.	.	12bb\L	.
.	.	12aa\	.
.	.	12gg\J	.
8BB/L	.	12ff#\L	.
.	.	12ee\	.
8AA/	.	.	.
.	.	12dd\J	.
8GG/	.	12cc\L	.
.	.	12b\	.
8AA/J	.	.	.
.	.	12a\J	.
=23	=23	=23	=23
4BB/	2DD\]	12g/L	.
.	.	12f#/	.
.	.	12g/J	.
4GG/	.	12a\L	.
.	.	12b\	.
.	.	12cc\J	.
4Cn/	2DD\	12dd'\	.
.	.	12d/L	.
.	.	12c#/J	.
4AA/)	.	12d/L	.
.	.	12e/	.
.	.	12f#/J	.
=24	=24	=24	=24
4GGG/ 4GG/	4r	4g/	.
4r	[2.GG\	4r	.
4G/	.	(8G/L	p
.	.	8g/	<
4F#/	.	8A/	.
.	.	8a/J	.
=25	=25	=25	=25
4Fn/	1GG_	8B/ 8g/L	.
.	.	8b/	.
4E/	.	8cn/ 8g/	.
.	.	8cc/J	.
4E-/	.	8c#/ 8g/ 8b-/L	.
.	.	8cc#/	.
4E-/	.	8c#/ 8g/ 8b-/	f
.	.	8cc#/J)	.
=26	=26	=26	=26
*	*	*^	*
(4E-/	2GG\]	8c#/ 8g/ (8b-/L	2r	>
.	.	8cc#/	.	.
4D/)	.	8d/ 8g/ 8bn/	.	.
.	.	8dd/J)	.	.
(12DD/L	2r	(8een/L	2f#\ 2a\	p
12D/	.	.	.	.
.	.	8dd/	.	.
12F#/	.	.	.	.
12A/	.	8cc#/	.	.
12F#/	.	.	.	.
.	.	8dd/J)	.	.
12D/J)	.	.	.	.
*v	*v	*	*	*
=27	=27	=27	=27
12GG\L	(4b/	2d\ 2g\	.
12D\	.	.	.
12G\	.	.	.
12B\	4dd/)	.	.
12G\	.	.	.
12D\J	.	.	.
12DD\L	(8ee/L	2f#\ 2a\	.
12D\	.	.	.
.	8dd/	.	.
12F#\	.	.	.
12A\	8cc#/	.	.
12F#\	.	.	.
.	8dd/J)	.	.
12D\J	.	.	.
=28	=28	=28	=28
*^	*	*	*
4GG/	[1GG	4b/	4d\ 4g\	.
2G/	.	4r	2.r	.
.	.	(8g\L	.	p
.	.	8gg\	.	.
4F#/	.	8a\	.	.
.	.	8gg\J	.	.
*	*	*v	*v	*
=29	=29	=29	=29
4Fn/	1GG_	8g\ 8b\L	.
.	.	8gg\	.
4E/	.	8g\ 8cc\	.
.	.	8gg\J	.
4E-/	.	8g\ 8b-\ 8cc#\L	.
.	.	8gg\	f
4E-/	.	8g\ 8b-\ 8cc#\	.
.	.	8gg\J)	.
=30	=30	=30	=30
(4E-/	2GG\]	8g\ 8b-\ (8cc#\L	>
.	.	8gg\	.
4D/)	.	8g\ 8bn\ 8dd\	.
.	.	8gg\J)	.
(8En/L	4DD\	(12f#/L	p
.	.	12a/	.
8D/	.	.	.
.	.	12dd/	.
8C#/	4r	12ff#/	.
.	.	12dd/	.
8D/J)	.	.	.
.	.	12a/J)	.
=31	=31	=31	=31
(4BB/	2GG\	12g\L	.
.	.	12b\	.
.	.	12dd\	.
4D/)	.	12gg\	.
.	.	12dd\	.
.	.	12b\J	.
8E/L	4DD\	12f#\L	.
.	.	12a\	.
8D/	.	.	.
.	.	12dd\	.
8C#/	4r	12ff#\	.
.	.	12dd\	.
8D/J	.	.	.
.	.	12a\J	.
=32	=32	=32	=32
4BB/	4GG\	12g\L	.
.	.	12b\	.
.	.	12dd\	.
4r	2.r	12gg\	.
.	.	12dd\	.
.	.	12b\J	.
12BB\L	.	(8ccc\L	.
12F#\	.	.	.
.	.	8bb\	.
12B\	.	.	.
12d#\	.	8aa#\	.
12B\	.	.	.
.	.	8bb\J)	.
12F#\J	.	.	.
*v	*v	*	*
=33	=33	=33
12E\L	(4gg\	.
12G\	.	.
12B\	.	.
12e\	4bb\)	.
12B\	.	.
12G\J	.	.
12BB\L	(8ccc\L	<
12F#\	.	.
.	8bb\	.
12B\	.	.
12d#\	8aa#\	.
12B\	.	.
.	8bb\J)	.
12F#\J	.	.
=34	=34	=34
12E\L	(4gg\	.
12G\	.	.
12B\	.	.
12e\	4bb\)	.
12B\	.	.
12G\J	.	.
(8BB/L	12cc#\L	f
.	12ee\	.
8AA/	.	.
.	12aa\	.
8GG#/	12ccc#\	.
.	12aa\	.
8AA/J)	.	.
.	12ee\J	.
=35	=35	=35
(4FF#/	12dd\L	.
.	12ff#\	.
.	12aa\	.
4AA/)	12ddd\	.
.	12aa\	.
.	12ff#\J	.
(8BB/L	12cc#\L	.
.	12ee\	.
8AA/	.	.
.	12aa\	.
8GG#/	12ccc#\	.
.	12aa\	.
8AA/J)	.	.
.	12ee\J	.
=36	=36	=36
(4FF#/	12dd\L	.
.	12ff#\	.
.	12aa\	.
4AA/)	12ddd\	.
.	12aa\	.
.	12ff#\J	.
12CC#\L	(8bb\L	p
12C#\	.	.
.	8aa\	.
12E\	.	.
12A\	8gg#\	.
12E\	.	.
.	8aa\J)	.
12C#\J	.	.
=37	=37	=37
*	*^	*
12DD\L	2r	(8ggn\L	.
12D\	.	.	.
.	.	8ff#\	.
12F#\	.	.	.
12A\	.	8ee#\	.
12F#\	.	.	.
.	.	8ff#\J)	.
12D\J	.	.	.
12EE\L	(8ff#/L	4g#\ 4b\	.
12D\	.	.	.
.	8een/	.	.
12E\	.	.	.
12G#\	8dd#/	4g#\ 4b\	.
12E\	.	.	.
.	8ee/J)	.	.
12D\J	.	.	.
=38	=38	=38	=38
12AA\L	(8ff#/L	4a\ 4cc#\	.
12C#\	.	.	.
.	8ee/	.	.
12E\	.	.	.
12A\	8dd#/	4r	.
12E\	.	.	.
.	8ee/J)	.	.
12C#\J	.	.	.
12CC#\L	(8bb\L	2r	p
12C#\	.	.	.
.	8aa\	.	.
12E\	.	.	.
12A\	8gg#\	.	.
12E\	.	.	.
.	8aa\J)	.	.
12C#\J	.	.	.
=39	=39	=39	=39
12DD\L	2r	(8ggn\L	.
12D\	.	.	.
.	.	8ff#\	.
12F#\	.	.	.
12A\	.	8ee#\	.
12F#\	.	.	.
.	.	8ff#\J)	.
12D\J	.	.	.
12EE\L	(8ff#/L	4g#\ 4b\	.
12D\	.	.	.
.	8een/	.	.
12E\	.	.	.
12G#\	8dd#/	4g#\ 4b\	.
12E\	.	.	.
.	8ee/J)	.	.
12D\J	.	.	.
=40	=40	=40	=40
12AA\L	(8ff#/L	4a\ 4cc#\	.
12C#\	.	.	.
.	8ee/	.	.
12E\	.	.	.
12A\	8dd#/	4r	.
12E\	.	.	.
.	8ee/J)	.	.
12C#\J	.	.	.
12EE\L	(8ff#/L	4g#\ 4b\	.
12D\	.	.	.
.	8ee/	.	.
12E\	.	.	.
12G#\	8dd#/	4g#\ 4b\	.
12E\	.	.	.
.	8ee/J)	.	.
12D\J	.	.	.
=41	=41	=41	=41
12AA\L	(8ff#/L	4a\ 4cc#\	.
12C#\	.	.	.
.	8ee/	.	.
12E\	.	.	.
12A\	8dd#/	4r	.
12E\	.	.	.
.	8ee/J	.	.
12C#\J	.	.	.
12EE\L	(8ff#/L)	4g#\ 4b\	.
12D\	.	.	.
.	8ee/	.	.
12E\	.	.	.
12G#\	8dd#/	4g#\ 4b\	.
12E\	.	.	.
.	8ee/J)	.	.
12D\J	.	.	.
*	*v	*v	*
=42	=42	=42
(C#q/	.	.
*^	*	*
[1A)	4AA\	4a/	.
.	4r	4r	.
.	4Gn\	12r	.
.	.	12a/L	.
.	.	12b/J	.
.	4E\	12cc#/L	.
.	.	12b/	.
.	.	12a/J	.
=43	=43	=43	=43
1A_	4F#\	12r	.
.	.	(12dd\L	.
.	.	12ee\J	.
.	4D\	12ff#\L	.
.	.	12ee\	.
.	.	12dd\J)	.
.	4G\	12r	.
.	.	(12a\L	.
.	.	12b\J	.
.	4E\	12cc#\L	.
.	.	12b\	.
.	.	12a\J)	.
=44	=44	=44	=44
1A_	4F#\	12r	.
.	.	(12dd\L	.
.	.	12ee\J	.
.	4D\	12ff#\L	.
.	.	12ee\	.
.	.	12dd\J)	.
.	4G\	12r	.
.	.	(12a\L	<
.	.	12b\J	.
.	4E\	12cc#\L	.
.	.	12b\	.
.	.	12a\J)	.
=45	=45	=45	=45
1A_	4F#\	12r	.
.	.	12dd\L	.
.	.	12ee\J	.
.	4D\	12ff#\L	.
.	.	12ee\	.
.	.	12dd\J	.
.	4E\	12gg\L	.
.	.	12ee\	.
.	.	12cc#\J	.
.	4AA\	12g/L	.
.	.	12e/	.
.	.	12c#/J	.
=46	=46	=46	=46
2r	4D\ 4A\]	12d/L	.
.	.	12f#/	.
.	.	12d/J	.
.	4FF#\	12A/L	p
.	.	12F#/	.
.	.	12d/J	.
[2AA/	4GG\	12r	.
.	.	12a\L	.
.	.	12b\J	.
.	4EE\	12cc#\L	.
.	.	12b\	.
.	.	12a\J	.
=47	=47	=47	=47
1AA_	4FF#\	12r	.
.	.	12dd\L	.
.	.	12ee\J	.
.	4DD\	12ff#\L	.
.	.	12ee\	.
.	.	12dd\J	.
.	4EE\	12gg\L	.
.	.	12ee\	.
.	.	12cc#\J	.
.	4AAA\	12g/L	.
.	.	12e/	.
.	.	12c#/J	.
=48	=48	=48	=48
2AA/]	4DD\	12d/L	.
.	.	12f#/	.
.	.	12d/J	.
.	4FF#\	12A/L	.
.	.	12F#/	.
.	.	12d/J	.
2AA/	(4GG\	12r	.
.	.	12a\L	.
.	.	12b\J	.
.	4EE\	12cc#\L	.
.	.	12b\	.
.	.	12a\J	.
=49	=49	=49	=49
1AA)	4FF#\	12r	.
.	.	12dd\L	.
.	.	12ee\J	.
.	(4DD\	12ff#\L	.
.	.	12ee\	.
.	.	12dd\J	.
.	4EE\	12gg\L	.
.	.	12ee\	.
.	.	12cc#\J	.
.	4AAA\	12g/L	.
.	.	12e/	.
.	.	12c#/J	.
=50	=50	=50	=50
2AA/)	4FF#\	12d/L	.
.	.	12f#/	.
.	.	12a/J	.
.	4DD\	12dd\L	.
.	.	12ff#\	.
.	.	12aa\J	.
[2AA/	4EE\	12gg\L	.
.	.	12ee\	.
.	.	12cc#\J	.
.	4AAA\	12g/L	.
.	.	12e/	.
.	.	12c#/J	.
=51	=51	=51	=51
2AA/]	4FF#\	12d/L	.
.	.	12f#/	.
.	.	12a/J	.
.	4DD\	12dd\L	.
.	.	12ff#\	.
.	.	12aa\J	.
[2AA/	4EE\	12gg\L	.
.	.	12ee\	.
.	.	12cc#\J	.
.	4AAA\	12g/L	.
.	.	12e/	.
.	.	12c#/J	.
=52	=52	=52	=52
4AA/]	4DD\	12d/L	p
.	.	12f#/	.
.	.	12d/J	.
2.r	4D'\	12A/L	.
.	.	12a/	.
.	.	12f#/J	.
.	4r	12d/L	.
.	.	12dd/	.
.	.	12a/J	.
.	4D'\ 4F#'\	12f#/L	.
.	.	12d/	.
.	.	12dd/J	.
*v	*v	*	*
=53	=53	=53
4r	12f#\L	.
.	12ff#\	.
.	12dd\J	.
4D'\ 4F#'\ 4A'\	12a\L	.
.	12f#\	.
.	12ff#\J	.
4r	12a\L	.
.	12aa\	.
.	12ff#\J	.
4D'\ 4F#'\ 4A'\ 4d'\	12dd\L	.
.	12a\	.
.	12aa\J	.
=54	=54	=54
4r	12dd\L	<
.	12ddd\	.
.	12dd\J	.
4F#''\ 4A''\ 4d''\	12ddd\L	.
.	12dd\	.
.	12ddd\J	.
4E#''\ 4G#''\ 4d''\	12dd\L	.
.	12ddd\	.
.	12dd\J	.
4F#''\ 4A''\ 4d''\	12ddd\L	.
.	12dd\	.
.	12ddd\J	.
=55	=55	=55
4E#''\ 4G#''\ 4d''\	12dd\L	.
.	12ddd\	.
.	12dd\J	.
4F#''\ 4A''\ 4d''\	12ddd\L	.
.	12dd\	.
.	12ddd\J	.
4E#''\ 4G#''\ 4d''\	12dd\L	.
.	12ddd\	.
.	12dd\J	.
4F#''\ 4A''\ 4d''\	12ddd\L	.
.	12dd\	.
.	12ddd\J	.
=56	=56	=56
4E#''\ 4G#''\ 4d''\	12dd\L	.
.	12ddd\	.
.	12dd\J	.
4F#''\ 4A''\ 4d''\	12ddd\L	.
.	12dd\	.
.	12ddd\J	.
[2Gn\ [2B\ [2d\	12bb\L	.
.	12ccc#\	.
.	12ddd\J	.
.	12gg\L	.
.	12aa\	.
.	12bb\J	.
=57	=57	=57
4G\] 4B\] 4d\]	12ee\L	p
.	12ff#\	.
.	12gg\J	.
4G'\ 4g'\	12b\L	.
.	12ff#\	.
.	12ee\J	.
4A'\ 4f#'\	12a\L	.
.	12ee\	.
.	12dd\J	.
4A'\ 4e'\	12g\L	.
.	12dd\	.
.	12cc#\J	.
=58	=58	=58
4r	12dd\L	>
.	12ddd\	.
.	12dd\J	.
4F#''\ 4A''\ 4d''\	12ddd\L	.
.	12dd\	.
.	12ddd\J	.
4E#''\ 4G#''\ 4d''\	12dd\L	.
.	12ddd\	.
.	12dd\J	.
4F#''\ 4A''\ 4d''\	12ddd\L	.
.	12dd\	.
.	12ddd\J	.
=59	=59	=59
4E#''\ 4G#''\ 4d''\	12dd\L	.
.	12ddd\	.
.	12dd\J	.
4F#''\ 4A''\ 4d''\	12ddd\L	.
.	12dd\	.
.	12ddd\J	.
4E#''\ 4G#''\ 4d''\	12dd\L	.
.	12ddd\	.
.	12dd\J	.
4F#''\ 4A''\ 4d''\	12ddd\L	.
.	12dd\	.
.	12ddd\J	.
=60	=60	=60
4E#''\ 4G#''\ 4d''\	12dd\L	f
.	12ddd\	.
.	12dd\J	.
4F#''\ 4A''\ 4d''\	12ddd\L	.
.	12dd\	.
.	12ddd\J	.
(2A\ 2cn\ [2d\	12dd\L	.
.	12ddd\	.
.	12dd\J	.
.	12ddd\L	.
.	12dd\	.
.	12ddd\J	.
=61	=61	=61
[1A [1c) 1d_	12ccc#\L	p
.	12eee\	.
.	12ddd\J	.
.	12gg#\L	.
.	12bb\	.
.	12aa\J	.
.	12ee#\L	.
.	12ggn\	.
.	12ff#\J	.
.	12cc#\L	.
.	12een\	.
.	12dd\J	.
=62	=62	=62
4A\] 4c\] 4d\]	12dd\L	f
.	12ddd\	.
.	12dd\J	.
4F#''\ 4A''\ 4d''\	12ddd\L	.
.	12dd\	.
.	12ddd\J	.
[2A\ [2c\ [2d\	12dd\L	.
.	12ddd\	.
.	12dd\J	.
.	12ddd\L	.
.	12dd\	.
.	12ddd\J	.
=63	=63	=63
1A_ 1c_ 1d_	(12ccc#\L	p
.	12eee\	.
.	12ddd\J)	.
.	(12gg#\L	.
.	12bb\	.
.	(12aa\J)	.
.	12ee#\L	.
.	12ggn\	.
.	(12ff#\J)	.
.	12cc#\L	.
.	12een\	.
.	12dd\J)	.
=64	=64	=64
12A\] 12c\] 12d\L]	12dd\L	.
12c\	12ddd\	.
12d\J	12dd\J	.
12F#\L	12ddd\L	.
12A\	12dd\	.
12d\J	12ddd\J	.
12A\L	12dd\L	.
12c\	12ddd\	.
12d\J	12dd\J	.
12F#\L	12ddd\L	.
12A\	12dd\	.
12d\J	12ddd\J	.
=65	=65	=65
12A\L	12dd\L	.
12c\	12ddd\	.
12d\J	12dd\J	.
12F#\L	12ddd\L	.
12A\	12dd\	.
12d\J	12ddd\J	.
12A\L	12dd\L	.
12c\	12ddd\	.
12d\J	12dd\J	.
12F#\L	12ddd\L	.
12A\	12dd\	.
12d\J	12ddd\J	.
=66	=66	=66
12A\L	4dd\	p
12c\	.	.
12d\J	.	.
12G\L	4r	.
12B\	.	.
12d\J	.	.
.	(eeq/	.
12F#\L	(8dd\L)	.
12A\	.	.
.	8cc#\	.
12d\J	.	.
12E\L	8dd\	.
12G\	.	.
.	8ee\J)	.
12d\J	.	.
=67	=67	=67
12D\L	4dd'\	.
12F#\	.	.
12d\J	.	.
12C\L	(4d/	.
12E\	.	.
12c\J	.	.
12BB\L	4e/	.
12D\	.	.
12B\J	.	.
12AA\L	4f#/	.
12C\	.	.
12A\J	.	.
=68	=68	=68
12BB/L	2g/)	.
12D/	.	.
12C/J	.	.
12BB/L	.	.
12AA/	.	.
12GG/J	.	.
12FF#/L	(8b/L	.
12AA/	.	.
.	8a/	.
12GG/J	.	.
12FF#/L	8g/	.
12EE/	.	.
.	8a/J)	.
12DD/J	.	.
=69	=69	=69
12GG/L	(4b\	.
12FF#/	.	.
12GG/J	.	.
12EE/L	4g/	.
12FF#/	.	.
12GG/J	.	.
12AA/L	4cc#\	.
12BB/	.	.
12AA/J	.	.
12GG/L	4a/)	.
12FF#/	.	.
12EE/J	.	.
=70	=70	=70
12DD/L	4dd\	.
12FF#/	.	.
12GG/J	.	.
12AA/L	4r	.
12BB/	.	.
12C#/J	.	.
.	eeq/	.
12D/L	(8dd\L	.
12DD/	.	.
.	8cc#\	.
12D/J	.	.
12BB/L	8dd\	.
12D/	.	.
.	8ee\J)	.
12BB/J	.	.
=71	=71	=71
12Cn/L	4dd'\	.
12D/	.	.
12C/J	.	.
12BB/L	(4d/	.
12D/	.	.
12BB/J	.	.
12C/L	4e/	.
12D/	.	.
12C/J	.	.
12AA/L	4f#/	.
12D/	.	.
12AA/J	.	.
=72	=72	=72
12BB/L	2g/)	.
12D/	.	.
12C/J	.	.
12BB/L	.	.
12AA/	.	.
12GG/J	.	.
12FF#/L	(8b/L	.
12AA/	.	.
.	8a/	.
12GG/J	.	.
12FF#/L	8g/	.
12EE/	.	.
.	8a/J)	.
12DD/J	.	.
=73	=73	=73
12GG/L	(4b\	.
12FF#/	.	.
12GG/J	.	.
12EE/L	4g/	.
12DD#/	.	.
12EE/J	.	.
12CC/L	4cc\	.
12BBB/	.	.
12CC/J	.	.
12DDn/L	4a/	.
12CC#/	.	.
12DD/J	.	.
=74	=74	=74
*	*^	*
12GGG/L	4g/)	2r	.
12BBB/	.	.	.
12DD/J	.	.	.
12GG/L	4r	.	.
12BB/	.	.	.
12D/J	.	.	.
8GG\L	4b/ (4gg/	[2g\	<
8G\	.	.	.
8AA\	4cc/ 4ff#/	.	.
8A\J	.	.	.
=75	=75	=75	=75
8BB\L	4dd/ 4ffn/	4g\]	.
8B\	.	.	.
8C\	4cc/ 4ee/)	2g\	.
(8c\J	.	.	.
8E-\L	4cc''/ 4ee-''/	.	f
8e-\	.	.	.
8F#\	4cc/ 4ee-/	4a\	.
8f#\J	.	.	.
=76	=76	=76	=76
8G\L	2r	4cc\ 4ee-\	>
8g\	.	.	.
8GG\	.	4b\ 4dd\	.
(8G\J)	.	.	.
8D\L	8een/L	2f#\ 2a\	p
8d\	8dd/	.	.
8DD\	8cc#/	.	.
8D\J)	8dd/J	.	.
=77	=77	=77	=77
(8GG/L	4g/ (4b/	4d\	.
8G/	.	.	.
8GGG/	4dd/)	4r	.
8GG/J	.	.	.
8DD/L	(8ee/L	2f#\ 2a\	.
8D/	8dd/	.	.
8DD/	8cc#/	.	.
8D/J)	8dd/J)	.	.
=78	=78	=78	=78
12GGG/L	4g/ 4b/	4d\	.
12BBB/	.	.	.
12DD/J	.	.	.
12GG/L	4r	4r	.
12FF#/	.	.	.
12GG/J	.	.	.
8GGG/L	4b/ (4gg/	[2g\	<
8GG/	.	.	.
8AAA/	4cc/ 4ff#/	.	.
8AA/J	.	.	.
=79	=79	=79	=79
8BBB/L	4dd/ 4ffn/	4g\]	.
8BB/	.	.	.
8CC/	4cc/ 4ee/)	2g\	.
8C/J	.	.	.
8EE-/L	4cc''/ 4ee-''/	.	f
8E-/	.	.	.
8FF#/	4cc/ 4ee-/	4a\	>
8F#/J	.	.	.
=80	=80	=80	=80
8GG/L	4cc/ (4ee-/	2g\	.
8G/	.	.	.
8BB/	4b/ 4dd/)	.	.
8B/J	.	.	.
8D/L	(8een/L	2f#\ 2a\	p
8d/	8dd/	.	.
8DD/	8cc#/	.	.
8D/J	8dd/J)	.	.
=81	=81	=81	=81
8GG/L	(4b/	4d\ 4g\	.
8G/	.	.	.
8GGG/	4dd/)	4r	.
8GG/J	.	.	.
8DD/L	(8ee/L	2f#\ 2a\	.
8D/	8dd/	.	.
8DD/	8cc#/	.	.
8D/J	8dd/J)	.	.
=82	=82	=82	=82
(4GGG/	4g/ 4b/	4d\	.
4GG/)	4r	4r	.
(E-q/	.	.	.
(8D\L)	2r	2r	p
8C#\	.	.	.
8D\	.	.	.
8E-\J)	.	.	.
*	*v	*v	*
=83	=83	=83
*^	*	*
4r	4D'\	12r	.
.	.	12bb-\L	.
.	.	12ccc\J	.
(4DD/	[2.DD\	12ddd\L	.
.	.	12ccc\	.
.	.	12bb-\J	.
4EEn/	.	12ccc\L	.
.	.	12aa\	.
.	.	12bb-\J	.
4FF#/	.	12ccc\L	.
.	.	12bb-\	.
.	.	12aa\J	.
=84	=84	=84	=84
2GG/	1DD_	12bb-\L	.
.	.	12gg\	.
.	.	12aa\J	.
.	.	12bb-\L	.
.	.	12aa\	.
.	.	12gg\J	.
8BB-/L	.	12ff#\L	.
.	.	12ee-\	.
8AA/	.	.	.
.	.	12dd\J	.
8GG/	.	12cc\L	.
.	.	12b-\	.
8AA/J	.	.	.
.	.	12a\J	.
=85	=85	=85	=85
4BB-/	2DD\]	12g\L	.
.	.	12dd\	.
.	.	12cc#\J	.
4GG/	.	12dd\L	.
.	.	12b-\	.
.	.	12a\J	.
4C#/	2DD\	12g\L	.
.	.	12een\	.
.	.	12dd#\J	.
4AA/)	.	12ee\L	.
.	.	12cc#\	.
.	.	12g\J	.
*v	*v	*	*
=86	=86	=86
2DD/ 2D/	12f#\L	.
.	12ddn\	.
.	12cc#\J	.
.	12dd\L	.
.	12a\	.
.	12f#\J	.
(E-q/	.	.
(8D\L)	4d/	.
8C#\	.	.
8D\	4r	.
8E-\J	.	.
=87	=87	=87
4D'\)	2r	.
(4DD/	.	.
*	*clefF4	*clefF4
4EE/	8d\L	.
.	8c#\	.
4FF#/	8d\	.
.	8e-\J	.
=88	=88	=88
2GG/)	4d'\	.
.	4D\	.
(8BB-/L	4En\	.
8AA/	.	.
8GG/	4F#\	.
8AA/J)	.	.
=89	=89	=89
(4BB-/	2G\	<
4GG/	.	.
4C/	(8B-\L	.
.	8A\	.
4AA/)	8G\	.
.	8A\J)	.
=90	=90	=90
(4D/	(4Bn\	.
4BBn/)	4G\)	.
*	*clefG2	*clefG2
4E-\ (4c\	(8gg\L	f
.	8ff#\	.
4C\ 4A\)	8gg\	.
.	8aa-\J)	.
=91	=91	=91
*	*^	*
2Fn\ 2d\	4gg'\	2r	.
.	(4g/	.	.
8GG/L	4a/	2d\ 2fn\	.
8FF#/	.	.	.
8GG/	4bn/	.	.
8AA-/J	.	.	.
=92	=92	=92	=92
4GG'/	2cc/)	2c\ 2e-\	.
4GGG''/	.	.	.
4AAA''/	(8ee-/L	2fn\	.
.	8dd/	.	.
4BBBn''/	8cc/	.	.
.	8dd/J)	.	.
=93	=93	=93	=93
2CC/	(4ee-/	2e-\	f
.	4cc/	.	.
8EE-/L	4ffn/	2fn\	.
8DD/	.	.	.
8CC/	4dd/	.	.
8DD/J	.	.	.
=94	=94	=94	=94
4EE-''/	2gg/	2g\	.
4CC''/	.	.	.
4FFn''/	8bb-/L	2a-\	.
.	8aa-/	.	.
4DD''/	8gg/	.	.
.	8aa-/J	.	.
=95	=95	=95	=95
2GG/	4bb-/	2b-\	.
.	4gg/	.	.
8BB-/L	4ccc/	2cc\	.
8AA-/	.	.	.
8GG/	4aa-/	.	.
8AA-/J	.	.	.
=96	=96	=96	=96
4BB-''/	2.r	4dd\ 4ddd\	.
4GG''/	.	4b-\ 4bb-\	.
4C''/	.	4ee-\ 4eee-\	.
4AAn''/	4ff#/	4ee-\	.
=97	=97	=97	=97
2BB-/	2gg/	4ee-\	>
.	.	2b-\	.
2BBB-/	2dd/	.	.
.	.	4a-\	.
=98	=98	=98	=98
12EE-/L	4ee-/)	4g\	p
12D/	.	.	.
12E-/J	.	.	.
12FFn/L	4r	2.r	.
12E-/	.	.	.
12Fn/J	.	.	.
12GG/L	[2ee-\ [2eee-\	.	.
12E-/	.	.	.
12G/J	.	.	.
12EE-/L	.	.	.
12D/	.	.	.
12E-/J	.	.	.
*	*v	*v	*
=99	=99	=99
12FFn/L	4ee-\] 4eee-\]	.
12E-/	.	.
12Fn/J	.	.
12GG/L	4r	.
12E-/	.	.
12G/J	.	.
12AA-/L	[2e-\ [2ee-\	.
12E-/	.	.
12A-/J	.	.
12FF/L	.	.
12E-/	.	.
12F/J	.	.
=100	=100	=100
*	*^	*
12GG\L	2r	4e-\] 4ee-\]	.
12E-\	.	.	.
12G\J	.	.	.
12AA-\L	.	4r	.
12E-\	.	.	.
12A-\J	.	.	.
12BB-\L	4dd-\	[2e-/ [2ee-/	.
12E-\	.	.	.
12B-\J	.	.	.
12GG\L	4bn\	.	.
12E-\	.	.	.
12G\J	.	.	.
=101	=101	=101	=101
12AA-\L	1e-] 1ee-_	4cc\	>
12E-\	.	.	.
12A-\J	.	.	.
12GG\L	.	4b-\	.
12E-\	.	.	.
12G\J	.	.	.
12FFn\L	.	4a-\	.
12E-\	.	.	.
12Fn\J	.	.	.
12BB-\L	.	4d\ 4a-\ 4dd\	.
12F\	.	.	.
12B-\J	.	.	.
*	*v	*v	*
=102	=102	=102
4EE-/ 4E-/	4e-\ 4g\ 4ee-\]	p
*clefG2	*	*
4g/ 4b-/	4r	.
.	(cccq/	.
4fn/ 4a-/	(8bb-\L)	.
.	8aan\	.
4e-/ 4g/	8bb-\	.
.	8ccc\J	.
=103	=103	=103
*^	*	*
4d/ 4fn/	4r	4bb-'\)	.
*clefF4	*clefF4	*	*
2B-/	4A-\	(4d/ 4b-/	.
.	4G\	4e-/ 4cc/	.
4B-/	4Fn\	4fn/ 4dd/	.
=104	=104	=104	=104
4B-/	4E-\	4g'/) 4ee-'/	.
*clefG2	*clefG2	*	*
4e-/ 4g/	2.r	4r	.
.	.	(aa-q/	.
4d/ 4fn/	.	(8gg\L)	.
.	.	8ff#\	.
4c/ 4e-/	.	8gg\	.
.	.	8aa-\J	.
=105	=105	=105	=105
4Bn/ 4d/	4r	4gg'\)	.
*clefF4	*clefF4	*	*
2G/	4Fn\	(4Bn/ 4g/	.
.	4E-\	4c/ 4an/	.
4G/	4D\	4d/ 4bn/	.
*v	*v	*	*
=106	=106	=106
12CC/L	4e-'/) 4cc'/	f
12BBn/	.	.
12C/J	.	.
12DD/L	4r	.
12C/	.	.
12D/J	.	.
12EE-/L	[2cc\ [2ccc\	.
12C/	.	.
12E-/J	.	.
12CC/L	.	.
12BB/	.	.
12C/J	.	.
=107	=107	=107
12DD/L	4cc\] 4ccc\]	.
12C/	.	.
12D/J	.	.
12EEn/L	4r	.
12C/	.	.
12En/J	.	.
12FFn/L	[2c/ [2cc/	.
12C/	.	.
12Fn/J	.	.
12DD/L	.	.
12C/	.	.
12D/J	.	.
=108	=108	=108
*	*^	*
12EE/L	2r	4c/] 4cc/]	.
12C/	.	.	.
12E/J	.	.	.
12FFn/L	.	4r	.
12C/	.	.	.
12Fn/J	.	.	.
12GG/L	[2c/ (2cc/	4b-\	.
12C/	.	.	.
12G/J	.	.	.
12EE/L	.	4g\	.
12C/	.	.	.
12E/J	.	.	.
=109	=109	=109	=109
12FFn/L	2.c/] (2.cc/	4a-\)	.
12C/	.	.	.
12Fn/J	.	.	.
12EE-/L	.	4g\	.
12C/	.	.	.
12E-/J	.	.	.
12DD/L	.	4fn\	.
12C/	.	.	.
12D/J	.	.	.
12GG/L	4Bn/ 4f/ 4bn/	4r	.
12D/	.	.	.
12G/J	.	.	.
*	*v	*v	*
=110	=110	=110
4CC/ 4C/	4c/ 4e-/ 4cc/)	.
*clefG2	*	*
4e-/ 4g/	4r	.
.	(aa-q/	.
4d/ 4fn/	(8gg\L)	.
.	8ff#\	.
4c/ 4e-/	8gg\	.
.	8aa-\J	.
=111	=111	=111
*^	*	*
4B/ 4d/	4r	4gg'\)	.
*clefF4	*clefF4	*	*
2G/	4Fn\	(4Bn/ 4g/	.
.	4E-\	4c/ 4a/	.
4G/	4D\	4d/ 4b/	.
=112	=112	=112	=112
4G/	4C\	4e-/) 4cc/	.
2.r	4A-\ 4c\	4r	.
.	.	dd-q/	.
.	4G\ 4B-\	(8cc\L	.
.	.	8bn\	.
.	4Fn\ 4A-\	8cc\	.
.	.	8dd-\J	.
=113	=113	=113	=113
4r	4En\ 4G\	4cc'\)	.
2C/	4BB-\	4een\ (4ccc\	.
.	4AA-\	4ffn\ 4ddd\	.
4C/	4GG\	4gg\ 4eeen\	.
*v	*v	*	*
=114	=114	=114
12FFn\L	4aa-\ 4fffn\)	f
12E\	.	.
12Fn\J	.	.
12GG\L	4r	.
12F\	.	.
12G\J	.	.
12AA-\L	[2ffn\ [2fffn\	.
12F\	.	.
12A-\J	.	.
12FF\L	.	.
12E\	.	.
12F\J	.	.
=115	=115	=115
12GG\L	4ff\] 4fff\]	.
12Fn\	.	.
12G\J	.	.
12AAn\L	4r	.
12F\	.	.
12An\J	.	.
12BB-\L	[2fn\ [2ffn\	.
12F\	.	.
12B-\J	.	.
12GG\L	.	.
12F\	.	.
12G\J	.	.
=116	=116	=116
*	*^	*
12AA\L	2r	4f\] 4ff\]	.
12Fn\	.	.	.
12A\J	.	.	.
12BB-\L	.	4r	.
12F\	.	.	.
12B-\J	.	.	.
12C\L	[2ffn/	2ee-\	.
12F\	.	.	.
12c\J	.	.	.
12AA\L	.	.	.
12F\	.	.	.
12A\J	.	.	.
=117	=117	=117	=117
(8BB-\L	4ff/]	4dd-\	.
8B-\	.	.	.
8D-\	4r	2.r	.
8d-\J	.	.	.
.	(eee-q/	.	.
8Fn\L	(8ddd-/L)	.	.
8fn\	8ccc/	.	.
8B-\)	8ddd-/	.	.
8b-\J	8eee-/J)	.	.
=118	=118	=118	=118
8G\L	4ddd-'/	2r	.
8g\	.	.	.
8E-\	4r	.	.
8e-\J	.	.	.
8BB-\L	[2ee-/	(2dd-\	.
8B-\	.	.	.
8GG\	.	.	.
8G\J	.	.	.
=119	=119	=119	=119
8AA-\L	4ee-/]	4cc\)	.
8A-\	.	.	.
8C\	4r	4r	.
8c\J	.	.	.
*	*v	*v	*
.	(dddnq/	.
*	*^	*
8E-\L	(8ccc/L)	2r	.
8e-\	8bbn/	.	.
8A-\	8ccc/	.	.
8a-\J	8dddn/J)	.	.
=120	=120	=120	=120
8F#\L	4ccc/	2r	.
8f#\	.	.	.
8D\	4r	.	.
8d\J	.	.	.
8AAn\L	[2ddn/	(2cc\	.
8An\	.	.	.
8FF#\	.	.	.
8F#\J	.	.	.
=121	=121	=121	=121
12GG\L	4dd/]	4b-\)	.
12F#\	.	.	.
12G\J	.	.	.
12AA\L	4r	4r	.
12G\	.	.	.
12A\J	.	.	.
12BB-\L	2r	[2g\ [2gg\	.
12G\	.	.	.
12B-\J	.	.	.
12GG\L	.	.	.
12F#\	.	.	.
12G\J	.	.	.
*	*v	*v	*
=122	=122	=122
12AA\L	4g\] 4gg\]	.
12G\	.	.
12A\J	.	.
12BBn\L	4r	.
12G\	.	.
12Bn\J	.	.
12C\L	[2g\ [2gg\	.
12G\	.	.
12c\J	.	.
12AA\L	.	.
12G\	.	.
12A\J	.	.
=123	=123	=123
*	*^	*
12BB\L	2r	4g\] 4gg\]	.
12G\	.	.	.
12B\J	.	.	.
12C\L	.	4r	.
12G\	.	.	.
12c\J	.	.	.
12D\L	(2g/ 2gg/	4ffn\	.
12G\	.	.	.
12d\J	.	.	.
12BB\L	.	4dd\)	.
12G\	.	.	.
12B\J	.	.	.
=124	=124	=124	=124
12C\L	2.g/ 2.gg/	4ee-\	>
12G\	.	.	.
12c\J	.	.	.
12BB\L	.	4dd\	.
12G\	.	.	.
12B\J	.	.	.
12C\L	.	4ee-\	.
12G\	.	.	.
12c\J	.	.	.
12C#\L	4g/ 4b-/ 4een/ 4gg/	4r	.
12G\	.	.	.
12c#\J	.	.	.
=125	=125	=125	=125
12D\L	2r	4f#/ 4a/ 4dd/ 4ff#/	p
12c#\	.	.	.
12d\J	.	.	.
12Cn\L	.	4r	.
12D\	.	.	.
12cn\J	.	.	.
12BB-\L	[2ddd/	4ddd\	f
12D\	.	.	.
12B-\J	.	.	.
12AA\L	.	4ccc\	p
12D\	.	.	.
12A\J	.	.	.
=126	=126	=126	=126
12GG/L	(2.ddd/]	4bb-\	.
12D/	.	.	.
12G/J	.	.	.
12FF#/L	.	4aa\	.
12D/	.	.	.
12F#/J	.	.	.
12GG/L	.	4bb-\	.
12D/	.	.	.
12G/J	.	.	.
12EE-/L	4ccc#/	4gg\	.
12D/	.	.	.
12E-/J	.	.	.
=127	=127	=127	=127
12DD/L	4ddd/)	4ff#\	.
12C#/	.	.	.
12D/J	.	.	.
12Cn\L	4r	4r	.
12D\	.	.	.
12cn\J	.	.	.
12BB-\L	([2dd/	4dd\	.
12D\	.	.	.
12B-\J	.	.	.
12AA\L	.	4ccn\	.
12D\	.	.	.
12A\J	.	.	.
=128	=128	=128	=128
12GG/L	2.dd/]	4b-\	.
12D/	.	.	.
12G/J	.	.	.
12FF#/L	.	4a\	.
12D/	.	.	.
12F#/J	.	.	.
12GG/L	.	4b-\	.
12D/	.	.	.
12G/J	.	.	.
12EE-/L	4gg/	4g\ 4cc#\	.
12D/	.	.	.
12E-/J	.	.	.
=129	=129	=129	=129
12DD\ 12D\L	4ff#/	4f#\) 4dd\	>
12d\	.	.	.
12D\J	.	.	.
12d\L	4r	4r	.
12D\	.	.	.
12d\J	.	.	.
12D\L	2r	2r	.
12d\	.	.	.
12D\J	.	.	.
12d\L	.	.	.
12D\	.	.	.
12d\J	.	.	.
*	*v	*v	*
=130	=130	=130
12D\L	1r	.
12d\	.	.
12D\J	.	.
12d\L	.	.
12D\	.	.
12d\J	.	.
12D\L	.	.
12d\	.	.
12D\J	.	.
12d\L	.	.
12D\	.	.
12d\J	.	.
=131	=131	=131
12D\L	1r	.
12d\	.	.
12D\J	.	.
12d\L	.	.
12D\	.	.
12d\J	.	.
12D\L	.	.
12d\	.	.
12D\J	.	.
12d\L	.	.
12D\	.	.
12d\J	.	.
=132	=132	=132
12D\L	2r	.
12d\	.	.
12D\J	.	.
12d\L	.	.
12D\	.	.
12d\J	.	.
12BB'\L	8dd\ (8ddd\L	p
12d\	.	.
.	8cc#\ 8ccc#\	.
12D\J	.	.
12d\L	8dd\ 8ddd\	.
12D\	.	.
.	8ee\ 8eee\J	.
12d\J	.	.
=133	=133	=133
12C'\L	4dd\ 4ddd\)	.
12e\	.	.
12D\J	.	.
12d\L	4d\ (4dd\	.
12D\	.	.
12d\J	.	.
12AA'\L	4e\ 4ee\	.
12d\	.	.
12D\J	.	.
12d\L	4f#\ 4ff#\	.
12D\	.	.
12d\J	.	.
=134	=134	=134
12BB'\L	2g\ 2gg\)	.
12d\	.	.
12D\J	.	.
12d\L	.	.
12D\	.	.
12d\J	.	.
12FF#'\L	8b\ (8bb\L	.
12d\	.	.
.	8a\ 8aa\	.
12D\J	.	.
12d\L	8g\ 8gg\	.
12D\	.	.
.	8a\ 8aa\J)	.
12d\J	.	.
=135	=135	=135
12GG'\L	4b\ (4bb\	.
12d\	.	.
12D\J	.	.
12d\L	4g\ 4gg\	.
12D\	.	.
12d\J	.	.
12EE'\L	4cc#\ 4ccc#\	.
12d\	.	.
12D\J	.	.
12d\L	4a\ 4aa\)	.
12D\	.	.
12d\J	.	.
=136	=136	=136
12DD'\L	2dd\ 2ddd\	.
12d\	.	.
12D\J	.	.
12d\L	.	.
12D\	.	.
12d\J	.	.
12BB'\L	8dd\ (8ddd\L	.
12d\	.	.
.	8cc#\ 8ccc#\	.
12D\J	.	.
12d\L	8dd\ 8ddd\	.
12D\	.	.
.	8ee\ 8eee\J	.
12d\J	.	.
=137	=137	=137
12C'\L	4dd\ 4ddd\)	.
12d\	.	.
12D\J	.	.
12d\L	4d\ (4dd\	.
12D\	.	.
12d\J	.	.
12AA'\L	4e\ 4ee\	.
12d\	.	.
12D\J	.	.
12d\L	4f#\ 4ff#\	.
12D\	.	.
12d\J	.	.
=138	=138	=138
12BB'\L	2g\ 2gg\)	.
12d\	.	.
12D\J	.	.
12d\L	.	.
12D\	.	.
12d\J	.	.
12FF#'\L	8b\ (8bb\L	.
12d\	.	.
.	8a\ 8aa\	.
12D\J	.	.
12d\L	8g\ 8gg\	.
12D\	.	.
.	8a\ 8aa\J)	.
12d\J	.	.
=139	=139	=139
12GG'\L	4b\ (4bb\	.
12d\	.	.
12D\J	.	.
12d\L	4g\ 4gg\	.
12D\	.	.
12d\J	.	.
12DD'\L	4cc#\ 4ccc#\	.
12d\	.	.
12D\J	.	.
12d\L	4a\ 4aa\	.
12D\	.	.
12d\J	.	.
=140	=140	=140
*^	*	*
4r	4GG/	4g\ 4gg\)	.
2G/	([2.G\	4r	.
.	.	12g\L	<
.	.	12b\	.
.	.	12gg\J	.
4A/	.	12g\L	.
.	.	12cc\	.
.	.	12ff#\J	.
=141	=141	=141	=141
4B/	1G_	12g\L	.
.	.	12dd\	.
.	.	12ffn\J	.
4c/	.	12g\L	.
.	.	12cc\	.
.	.	12ee\J	f
4e-/	.	12g\L	.
.	.	12cc\	.
.	.	12ee-\J	.
4f#/	.	12a\L	.
.	.	12cc\	.
.	.	12ee-\J	.
=142	=142	=142	=142
*	*	*^	*
4g/	4G\]	2r	12cc\L	.
.	.	.	12ee-\	.
.	.	.	12cc\J	.
2.r	4G\)	.	12b\L	.
.	.	.	12dd\	.
.	.	.	12b\J	.
.	(4d\	8een/L	2f#\ 2a\	p
.	.	8dd/	.	.
.	4D\	8cc#/	.	.
.	.	8dd/J	.	.
*v	*v	*	*	*
=143	=143	=143	=143
4G\	4b/	4d\ 4g\	.
4GG/	4dd/	4r	.
4D\	8ee/L	2f#\ 2a\	.
.	8dd/	.	.
4DD/	8cc#/	.	.
.	8dd/J	.	.
*	*v	*v	*
=144	=144	=144
*^	*	*
4r	4GG/)	4d/ 4g/ 4b/	.
(2G/	[2.G\	4r	.
.	.	12b\L	<
.	.	12aa\	.
.	.	12gg\J	.
4A/	.	12cc\L	.
.	.	12gg\	.
.	.	12ff#\J	.
=145	=145	=145	=145
4B/	1G_	12dd\L	.
.	.	12gg\	.
.	.	12ffn\J	.
4c/	.	12g\L	.
.	.	12ff\	.
.	.	12ee\J	f
4e-/	.	12cc\L	.
.	.	12ff\	.
.	.	12ee-\J	>
4f#/	.	12cc\L	.
.	.	12ff\	.
.	.	12ee-\J	.
=146	=146	=146	=146
*	*	*^	*
4g/	4G\]	2r	12cc\L	.
.	.	.	12ffn\	.
.	.	.	12ee-\J	.
2.r	4G\)	.	12b\L	.
.	.	.	12ee-\	.
.	.	.	12dd\J	p
.	(4d\	8een/L	2f#\ 2a\	.
.	.	8dd/	.	.
.	4D\	8cc#/	.	.
.	.	8dd/J	.	.
*v	*v	*	*	*
=147	=147	=147	=147
4G\	4b/	4d\ 4g\	.
4GG/	4dd/	4r	.
4D\	8ee/L	2f#\ 2a\	.
.	8dd/	.	.
4DD/)	8cc#/	.	.
.	8dd/J	.	.
=148	=148	=148	=148
(4GG/	4g/ 4b/	4d\	f
4GGG/)	4r	4r	.
(Eq/	.	.	.
(8D\L)	2r	2r	.
8C#\	.	.	.
8D\	.	.	.
8E\J	.	.	.
*	*v	*v	*
=149	=149	=149
*^	*	*
4D'\)	4r	12r	.
.	.	12bb\L	.
.	.	12ccc\J	.
(4DD/	2.DD\	12ddd\L	.
.	.	12ccc\	.
.	.	12bb\J	.
4EE/	.	12ccc\L	.
.	.	12aa\	.
.	.	12bb\J	.
4FF#/	.	12ccc\L	.
.	.	12bb\	.
.	.	12aa\J	.
*v	*v	*	*
=150	=150	=150
2GG/	12bb\L	.
.	12gg\	.
.	12aa\J	.
.	12bb\L	.
.	12aa\	.
.	12gg\J	.
8BB/L	12ff#\L	.
.	12ee\	.
8AA/	.	.
.	12dd\J	.
8GG/	12cc\L	.
.	12b\	.
8AA/J	.	.
.	12a\J	.
=151	=151	=151
*^	*	*
4BB/	2DD\	12g\L	.
.	.	12dd\	.
.	.	12cc#\J	.
4GG/	.	12dd\L	.
.	.	12b\	.
.	.	12a\J	.
4C#/	2r	12g\L	.
.	.	12ee\	.
.	.	12dd#\J	.
4AA/	.	12ee\L	.
.	.	12cc#\	.
.	.	12g\J	.
*v	*v	*	*
=152	=152	=152
2DD/ 2D/)	12f#/L	.
.	12ddn/	.
.	12cc#/J	.
.	12dd/L	.
.	12a/	.
.	12f#/J	.
(Eq/	.	.
(8D\L)	4d/	.
8C#\	.	.
8D\	4r	.
8E\J	.	.
=153	=153	=153
*^	*	*
4D'\)	4r	12r	.
.	.	12bb\L	.
.	.	12ccc\J	.
(4DD/	2.DD\	12ddd\L	.
.	.	12ccc\	.
.	.	12bb\J	.
4EE/	.	12ccc\L	.
.	.	12aa\	.
.	.	12bb\J	.
4FF#/	.	12ccc\L	.
.	.	12bb\	.
.	.	12aa\J	.
=154	=154	=154	=154
2GG/	[1DD	12bb\L	.
.	.	12gg\	.
.	.	12aa\J	.
.	.	12bb\L	.
.	.	12aa\	.
.	.	12gg\J	.
8BB/L	.	12ff#\L	.
.	.	12ee\	.
8AA/	.	.	.
.	.	12dd\J	.
8GG/	.	12cc\L	.
.	.	12b\	.
8AA/J	.	.	.
.	.	12a\J	.
=155	=155	=155	=155
4BB/	2DD\]	12g/L	.
.	.	12f#/	.
.	.	12g/J	.
4GG/	.	12a/L	.
.	.	12b/	.
.	.	12cc/J	.
4C/	2DD\	12dd/L	.
.	.	12d/	.
.	.	12c#/J	.
4AA/	.	12d/L	.
.	.	12e/	.
.	.	12f#/J	.
=156	=156	=156	=156
2r	4GGG/ 4GG/)	12g\L	.
.	.	12gg\	.
.	.	12g\J	.
.	4r	12gg\L	.
.	.	12g\	.
.	.	12gg\J	<
(4G/	4G\	12g\L	.
.	.	12gg\	.
.	.	12g\J	.
4A/	4F#\	12gg\L	.
.	.	12g\	.
.	.	12gg\J	.
=157	=157	=157	=157
4B/	4Fn\	12g\L	.
.	.	12gg\	.
.	.	12g\J	.
4c/	4E\	12gg\L	.
.	.	12g\	.
.	.	12gg\J	f
4c#''/	4E\) 4B-\	12g\L	.
.	.	12gg\	.
.	.	12g\J	.
4c#''/	4E\ 4B-\	12gg\L	.
.	.	12g\	.
.	.	12gg\J	.
=158	=158	=158	=158
*	*	*^	*
(4c#/	4E-\ 4B-\	2r	12g\L	>
.	.	.	12gg\	.
.	.	.	12g\J	.
4d/)	4D\ 4Bn\	.	12gg\L	.
.	.	.	12g\	.
.	.	.	12gg\J	.
2r	12DD\L	(8ee/L	2f#\ 2a\	p
.	12D\	.	.	.
.	.	8dd/	.	.
.	12F#\	.	.	.
.	12A\	8cc#/	.	.
.	12F#\	.	.	.
.	.	8dd/J)	.	.
.	12D\J	.	.	.
*v	*v	*	*	*
=159	=159	=159	=159
12GG\L	(4b/	4d\ 4g\	.
12D\	.	.	.
12G\	.	.	.
12B\	4dd/)	4r	.
12G\	.	.	.
12D\J	.	.	.
12DD\L	(8ee/L	2f#\ 2a\	.
12D\	.	.	.
.	8dd/	.	.
12F#\	.	.	.
12A\	8cc#/	.	.
12F#\	.	.	.
.	8dd/J)	.	.
12D\J	.	.	.
*	*v	*v	*
=160	=160	=160
4GG\ 4G\	12d\ 12g\ 12b\L	.
.	12gg\	.
.	12g\J	<
4r	12gg\L	.
.	12g\	.
.	12gg\J	.
4GG\ (4G\	12g\L	.
.	12gg\	.
.	12g\J	.
4AA\ 4F#\	12gg\L	.
.	12g\	.
.	12gg\J	.
=161	=161	=161
4BB\ 4Fn\	12g\L	.
.	12gg\	.
.	12g\J	.
4C\ 4E\	12gg\L	.
.	12g\	.
.	12gg\J	.
4C\ 4E-\)	12g\L	f
.	12gg\	.
.	12g\J	.
4C''\ 4E-''\	12gg\L	.
.	12g\	.
.	12gg\J	.
=162	=162	=162
*^	*	*
4C/ (4E-/	2r	12g\L	>
.	.	12gg\	.
.	.	12g\J	.
4BB/ 4D/)	.	12gg\L	.
.	.	12g\	.
.	.	12gg\J	.
(8En/L	4DD\	12f#\L	p
.	.	12a\	.
8D/	.	.	.
.	.	12dd\	.
8C#/	4r	12ff#\	.
.	.	12dd\	.
8D/J)	.	.	.
.	.	12a\J	.
=163	=163	=163	=163
(4BB/	4GG\	12g\L	.
.	.	12b\	.
.	.	12dd\	.
4D/)	4r	12gg\	.
.	.	12dd\	.
.	.	12b\J	.
(8E/L	4DD\	12f#\L	.
.	.	12a\	.
8D/	.	.	.
.	.	12dd\	.
8C#/	4r	12ff#\	.
.	.	12dd\	.
8D/J)	.	.	.
.	.	12a\J	.
=164	=164	=164	=164
4BB/	4GG\	12g\L	.
.	.	12b\	.
.	.	12dd\	.
4r	4r	12gg\	.
.	.	12dd\	.
.	.	12b\J	.
2r	12BB\L	(8ccc\L	.
.	12F#\	.	.
.	.	8bb\	.
.	12B\	.	.
.	12d#\	8aa#\	.
.	12B\	.	.
.	.	8bb\J)	.
.	12F#\J	.	.
*v	*v	*	*
=165	=165	=165
12E\L	(4gg\	.
12G\	.	.
12B\	.	.
12e\	4bb\)	.
12B\	.	.
12G\J	.	.
12BB\L	(8ccc\L	.
12F#\	.	.
.	8bb\	.
12B\	.	.
12d#\	8aa#\	.
12B\	.	.
.	8bb\J)	.
12F#\J	.	.
=166	=166	=166
12E\L	(4gg\	.
12G\	.	.
12B\	.	.
12e\	4bb\)	.
12B\	.	.
12G\J	.	.
(8AA/L	12b\L	.
.	12dd\	.
8GG/	.	.
.	12gg\	.
8FF#/	12bb\	.
.	12gg\	.
8GG/J)	.	.
.	12dd\J	.
=167	=167	=167
(4EE/	12cc\L	<
.	12ee\	.
.	12gg\	.
4GG/)	12ccc\	.
.	12gg\	.
.	12ee\J	.
(8AA/L	12b\L	.
.	12dd\	.
8GG/	.	.
.	12gg\	.
8FF#/	12bb\	.
.	12gg\	.
8GG/J)	.	.
.	12dd\J	.
=168	=168	=168
(4EE/	12cc\L	.
.	12ee\	.
.	12gg\	.
4GG/)	12ccc\	.
.	12gg\	.
.	12ee\J	.
12EE\L	(8fffn\L	p
12E\	.	.
.	8eee\	.
12G#\	.	.
12B\	8ddd#\	.
12G#\	.	.
.	8eee\J)	.
12E\J	.	.
=169	=169	=169
12AA\L	(4ccc\	.
12E\	.	.
12A\	.	.
12c\	4eee\)	.
12A\	.	.
12E\J	.	.
12EE\L	(8fffn\L	.
12E\	.	.
.	8eee\	.
12G#\	.	.
12B\	8ddd#\	.
12G#\	.	.
.	8eee\J)	.
12E\J	.	.
=170	=170	=170
12AA\L	(4ccc\	.
12E\	.	.
12A\	.	.
12c\	4eee\)	.
12A\	.	.
12E\J	.	.
12EE\L	(8fffn\L	<
12E\	.	.
.	8eee\	.
12G#\	.	.
12B\	8ddd#\	.
12G#\	.	.
.	8eee\J)	.
12E\J	.	.
=171	=171	=171
12AA\L	(8dddn\L	.
12E\	.	.
.	8ccc\	.
12A\	.	.
12c\	8bb\	.
12A\	.	.
.	8ccc\J	.
12E\J	.	.
12C\L	8bb\L	.
12E\	.	.
.	8aa\	.
12A\	.	.
12c\	8gg#\	.
12A\	.	.
.	8aa\J	.
12E\J	.	.
=172	=172	=172
12D\L	8gg\L	.
12A\	.	.
.	8ff#\	.
12c\	.	.
12d\	8ee#\	.
12c\	.	.
.	8ff#\J)	.
12A\J	.	.
12FF#\L	(8eee\L	.
12D\	.	.
.	8ddd\	.
12F#\	.	.
12A\	8ccc#\	.
12F#\	.	.
.	8ddd\J	.
12D\J	.	.
=173	=173	=173
*	*^	*
12GG\L	2r	8cccn\L	.
12D\	.	.	.
.	.	8bb\	.
12G\	.	.	.
12B\	.	8aa#\	.
12G\	.	.	.
.	.	8bb\J)	.
12D\J	.	.	.
12AA\L	(8bb/L	4cc#\ 4ee\	.
12G\	.	.	.
.	8aan/	.	.
12A\	.	.	.
12c#\	8gg#/	4cc#\ 4ee\	.
12A\	.	.	.
.	8aa/J)	.	.
12G\J	.	.	.
=174	=174	=174	=174
12D\L	4dd\ 4ff#\	(8bb/L	.
12F#\	.	.	.
.	.	8aa/	.
12A\	.	.	.
12d\	4r	8gg#/	.
12A\	.	.	.
.	.	8aa/J)	p
12F#\J	.	.	.
12FF#\L	(8eee\L	2r	<
12D\	.	.	.
.	8ddd\	.	.
12F#\	.	.	.
12A\	8ccc#\	.	.
12F#\	.	.	.
.	8ddd\J)	.	.
12D\J	.	.	.
=175	=175	=175	=175
12GG\L	2r	(8cccn\L	.
12D\	.	.	.
.	.	8bb\	.
12G\	.	.	.
12B\	.	8aa#\	.
12G\	.	.	.
.	.	8bb\J)	.
12D\J	.	.	.
12AA\L	8bb/L	4cc#\ 4ee\	.
12G\	.	.	.
.	8aan/	.	.
12A\	.	.	.
12c#\	8gg#/	4cc#\ 4ee\	.
12A\	.	.	.
.	8aa/J	.	.
12G\J	.	.	.
=176	=176	=176	=176
12D\L	8bb/L	4dd\ 4ff#\	.
12F#\	.	.	.
.	8aa/	.	.
12A\	.	.	.
12d\	8gg#/	4r	.
12A\	.	.	.
.	8aa/J	.	.
12F#\J	.	.	.
12AA\L	8bb/L	4cc#\ 4ee\	.
12G\	.	.	.
.	8aa/	.	.
12A\	.	.	.
12c#\	8gg#/	4cc#\ 4ee\	.
12A\	.	.	.
.	8aa/J	.	.
12G\J	.	.	.
=177	=177	=177	=177
12D\L	8bb/L	4dd\ 4ff#\	.
12F#\	.	.	.
.	8aa/	.	.
12A\	.	.	.
12d\	8gg#/	4r	.
12A\	.	.	.
.	8aa/J	.	.
12F#\J	.	.	.
12AA\L	8bb/L	4cc#\ 4ee\	.
12G\	.	.	.
.	8aa/	.	.
12A\	.	.	.
12c#\	8gg#/	4cc#\ 4ee\	.
12A\	.	.	.
.	8aa/J	.	.
12G\J	.	.	.
*	*v	*v	*
=178	=178	=178
(F#q/	.	.
*^	*	*
(1d)	4D\	4dd\	.
.	4r	4r	.
.	4cn\	12r	.
.	.	(12dd\L	.
.	.	12ee\J	.
.	4A\	12ff#\L	.
.	.	12ee\	.
.	.	12dd\J)	.
*v	*v	*	*
=179	=179	=179
(4B\)	12r	.
.	12gg\L	.
.	12aa\J	.
4G\	12bb\L	.
.	12aa\	.
.	12gg\J	.
4c\	12r	.
.	12dd\L	.
.	12ee\J	.
4A\	12ff#\L	.
.	12ee\	.
.	12dd\J	.
=180	=180	=180
*^	*	*
[1d)	4B\	12r	.
.	.	12gg\L	.
.	.	12aa\J	.
.	4G\	12bb\L	.
.	.	12aa\	.
.	.	12gg\J	.
.	4c\	12r	.
.	.	12dd\L	.
.	.	12ee\J	.
.	4A\	12ff#\L	.
.	.	12ee\	.
.	.	12dd\J	.
=181	=181	=181	=181
1d_	4B\	12r	.
.	.	12gg\L	.
.	.	12aa\J	.
.	4G\	12bb\L	.
.	.	12aa\	.
.	.	12gg\J	.
.	4A\	12ccc\L	.
.	.	12aa\	.
.	.	12ff#\J	.
.	4D\	12cc/L	.
.	.	12a/	.
.	.	12f#/J	.
=182	=182	=182	=182
2r	4G\ 4d\]	12g/L	.
.	.	12b/	.
.	.	12g/J	.
.	4BB\	12d/L	.
.	.	12B/	.
.	.	12g/J	.
[2D/	4C\	12r	.
.	.	12d/L	.
.	.	12e/J	.
.	4AA\	12f#/L	.
.	.	12e/	.
.	.	12d/J	.
=183	=183	=183	=183
1D]	4BB\	12r	.
.	.	12g/L	.
.	.	12a/J	.
.	4GG\	12b/L	.
.	.	12a/	.
.	.	12g/J	.
.	4AA\	12cc/L	.
.	.	12a/	.
.	.	12f#/J	.
*	*	*clefF4	*clefF4
.	4DD\	12c\L	.
.	.	12A\	.
.	.	12F#\J	.
=184	=184	=184	=184
4D/	4GG\	12G\L	.
.	.	12B\	.
.	.	12G\J	.
4r	4BBB\	12D\L	.
.	.	12BB\	.
.	.	12G\J	.
[2DD/	4CC\	12r	.
.	.	12D\L	.
.	.	12E\J	.
.	4AAA\	12F#\L	.
.	.	12E\	.
.	.	12D\J	.
=185	=185	=185	=185
1DD_	4BBB\	12r	.
.	.	12G\L	.
.	.	12A\J	.
.	4GGG\	12B\L	.
.	.	12A\	.
.	.	12G\J	.
.	4AAA\	12c\L	.
.	.	12A\	.
.	.	12F#\J	.
.	4CC\	12C/L	.
.	.	12AA/	.
.	.	12FF#/J	.
=186	=186	=186	=186
2DD/]	4BBB\	12GG/L	.
.	.	12BB/	.
.	.	12D/J	.
.	4GGG\	12G\L	.
.	.	12B\	.
.	.	12d\J	.
[2DD/	4AAA\	12c\L	.
.	.	12A\	.
.	.	12F#\J	.
.	4CC\	12C/L	.
.	.	12AA/	.
.	.	12FF#/J	.
=187	=187	=187	=187
2DD/]	4BBB\	12GG/L	.
.	.	12BB/	.
.	.	12D/J	.
.	4GGG\	12G\L	.
.	.	12B\	.
.	.	12d\J	.
(2DD/	4AAA\	12c\L	.
.	.	12A\	.
.	.	12F#\J	.
.	4CC\)	12C/L	.
.	.	12AA/	.
.	.	12FF#/J	.
=188	=188	=188	=188
4DD/	4BBB\	12GG\L	.
.	.	12B\	.
.	.	12G\J	.
4GGG'/ 4GG'/	2.r	12D\L	.
.	.	12BB\	.
.	.	12B\J	.
4r	.	12D\L	.
.	.	12d\	<
.	.	12B\J	.
4GG'/ 4BB'/	.	12G\L	.
.	.	12D\	.
.	.	12d\J	.
*v	*v	*	*
*	*clefG2	*clefG2
=189	=189	=189
4r	12G/L	.
.	12g/	.
.	12d/J	.
4BB/ 4D/	12B/L	.
.	12G/	.
.	12g/J	.
4r	12B/L	.
.	12b/	.
.	12g/J	.
4GG'\ 4BB'\ 4D'\ 4G'\	12d/L	.
.	12dd/	.
.	12b/J	.
=190	=190	=190
4r	12g\L	f
.	12gg\	.
.	12g\J	.
4BB''\ 4D''\ 4G''\	12gg\L	.
.	12g\	.
.	12gg\J	.
4AA#''\ 4C#''\ 4G''\	12g\L	.
.	12gg\	.
.	12g\J	.
4BB''\ 4D''\ 4G''\	12gg\L	.
.	12g\	.
.	12gg\J	.
=191	=191	=191
4AA#''\ 4C#''\ 4G''\	12g\L	.
.	12gg\	.
.	12g\J	.
4BB''\ 4D''\ 4G''\	12gg\L	.
.	12g\	.
.	12gg\J	.
4AA#''\ 4C#''\ 4G''\	12g\L	.
.	12gg\	.
.	12g\J	.
4BB''\ 4D''\ 4G''\	12gg\L	.
.	12g\	.
.	12gg\J	.
=192	=192	=192
4AA#''\ 4C#''\ 4G''\	12g\L	.
.	12gg\	.
.	12g\J	.
4BB''\ 4D''\ 4G''\	12gg\L	.
.	12g\	.
.	12gg\J	.
[2Cn\ [2E\ [2G\	12ee\L	.
.	12ff#\	.
.	12gg\J	.
.	12cc\L	.
.	12dd\	.
.	12ee\J	.
=193	=193	=193
4C\] 4E\] 4G\]	12a/L	p
.	12b/	.
.	12cc/J	.
4C'\ 4c'\	12e/L	.
.	12b/	.
.	12a/J	.
4D'\ 4B'\	12d/L	.
.	12a/	.
.	12g/J	.
4D'\ 4A'\	12c/L	.
.	12g/	.
.	12f#/J	.
=194	=194	=194
4r	12g\L	<
.	12gg\	.
.	12g\J	.
4BB''\ 4D''\ 4G''\	12gg\L	.
.	12g\	.
.	12gg\J	.
4AA#'\ 4C#'\ 4G'\	12g\L	.
.	12gg\	.
.	12g\J	.
4BB'\ 4D'\ 4G'\	12gg\L	.
.	12g\	.
.	12gg\J	.
=195	=195	=195
4AA#''\ 4C#''\ 4G''\	12g\L	f
.	12gg\	.
.	12g\J	.
4BB''\ 4D''\ 4G''\	12gg\L	.
.	12g\	.
.	12gg\J	.
4AA#''\ 4C#''\ 4G''\	12g\L	.
.	12gg\	.
.	12g\J	.
4BB''\ 4D''\ 4G''\	12gg\L	.
.	12g\	.
.	12gg\J	.
=196	=196	=196
4AA#''\ 4C#''\ 4G''\	12g\L	.
.	12gg\	.
.	12g\J	.
4BB''\ 4D''\ 4G''\	12gg\L	.
.	12g\	.
.	12gg\J	.
[2D\ [2Fn\ [2B\	12g\L	.
.	12gg\	.
.	12g\J	.
.	12gg\L	.
.	12g\	.
.	12gg\J	.
=197	=197	=197
4D\] 4F\] 4B\]	12g\L	.
.	12gg\	.
.	12g\J	.
4BB\ 4D\ 4G\	12gg\L	.
.	12g\	.
.	12gg\J	.
[2E\ [2G\ [2c\	12g\L	.
.	12gg\	.
.	12g\J	.
.	12gg\L	.
.	12g\	.
.	12gg\J	.
=198	=198	=198
4E\] 4G\] 4c\]	12g\L	.
.	12gg\	.
.	12g\J	.
4C#''\ 4E''\ 4B-''\	12gg\L	.
.	12g\	.
.	12gg\J	.
2E\ 2B-\ 2c#\	12g\L	.
.	12gg\	.
.	12g\J	.
.	12gg\L	.
.	12g\	.
.	12gg\J	.
=199	=199	=199
4E\ 4B-\ 4c#\	12g\L	.
.	12gg\	.
.	12g\J	.
2E\ 2B-\ 2c#\	12gg\L	.
.	12g\	.
.	12gg\J	.
.	12g\L	.
.	12gg\	.
.	12g\J	.
4E\ 4B-\ 4c#\	12gg\L	.
.	12g\	.
.	12gg\J	.
=200	=200	=200
12D\L	12g\L	.
12Bn\	12gg\	.
12d\J	12g\J	.
12E\L	12gg\L	.
12B-\	12g\	.
12c#\J	12gg\J	.
12D\L	12g\L	.
12Bn\	12gg\	.
12d\J	12g\J	.
12C#\L	12gg\L	.
12B-\	12g\	.
12e\J	12gg\J	.
=201	=201	=201
12D\L	12g\L	.
12B\	12gg\	.
12d\J	12g\J	.
4EE/	(12gg\L	.
.	12cc#\	.
.	12b-\J	.
4DD/	12gg\L	.
.	12dd\	.
.	12bn\J	.
4CC#/	12gg\L	.
.	12ee\	.
.	12b-\J	.
=202	=202	=202
4DD/	12gg\L	.
.	12dd\	.
.	12bn\J)	.
12E\L	12gg\L	p
12B-\	12g\	.
12c#\J	12gg\J	.
12D\L	12g\L	.
12Bn\	12gg\	.
12d\J	12g\J	.
12C#\L	12gg\L	.
12B-\	12g\	.
12e\J	12gg\J	.
=203	=203	=203
12D\L	12g\L	.
12B\	12gg\	.
12d\J	12g\J	.
(4EE/	12gg\L	.
.	12cc#\	.
.	12b-\J	.
4DD/	12gg\L	.
.	12dd\	.
.	12bn\J	.
4CC#/	12gg\L	.
.	12ee\	.
.	12b-\J	.
=204	=204	=204
4DD/	12gg\L	.
.	12dd\	.
.	12bn\J	.
4EE/	12gg\L	.
.	12cc#\	.
.	12b-\J	.
4DD/	12gg\L	.
.	12dd\	.
.	12bn\J	.
4CC#/	12gg\L	.
.	12ee\	.
.	12b-\J	.
=205	=205	=205
4DD/	12gg\L	.
.	12dd\	.
.	12bn\J	.
4CC#/	12gg\L	.
.	12ee\	.
.	12b-\J	.
4DD/	12gg\L	.
.	12dd\	.
.	12bn\J	.
4CC#/)	12gg\L	.
.	12ee\	.
.	12b-\J	.
=206	=206	=206
[1DD [1D	4bn\ 4dd\ 4gg\	.
.	4r	.
.	(4g/	.
.	4f#/	.
=207	=207	=207
*	*^	*
1DD_ 1D_	4fn/	4r	.
.	4e/)	8r	.
.	.	8G\	.
.	4e-/	4c\	.
.	4e-'/	4c\	.
=208	=208	=208	=208
*^	*	*	*
2r	1DD_ 1D_	(4e-/	4c\	.
.	.	4d/)	8B\L	.
.	.	.	8E\J	.
4A'/	.	(4c#/	2r	.
4A'/	.	4cn/	.	.
*	*	*v	*v	*
=209	=209	=209	=209
(4A/	1DD] 1D]	4B/)	.
8G/)	.	4r	.
8r	.	.	.
(4G/	.	2r	.
4F#/	.	.	.
=210	=210	=210	=210
4Fn/	[1DD	4r	.
4En/)	.	8r	.
.	.	8g/	.
4E-'/	.	4cc'\	.
4E-'/	.	4cc'\	.
=211	=211	=211	=211
(4E-/	1DD_	(4cc\	.
4D/)	.	8b/L)	.
.	.	8en/J	.
4C#'/	.	4a'/	.
4Cn'/	.	4a'/	.
=212	=212	=212	=212
4C/	1DD_	(4a'/	.
4BB/	.	8g/)	.
.	.	8r	.
4BB-/	.	4dd\ (4ddd\	<
4AA/	.	4cc#\ 4ccc#\	.
=213	=213	=213	=213
4AA-/	4.DD\]	4ccn\ 4cccn\	.
8GG/L	.	4b\ 4bb\)	.
8D/J	8DD\	.	.
2r	4GG'\ 4G'\	4b-'\ 4bb-'\	.
.	4G'\	4b-'\ 4bb-'\	.
*v	*v	*	*
=214	=214	=214
4G\ (4c#\	4b-\ (4bb-\	.
8F#\ 8d\L)	8a\ 8aa\L)	.
8BB\J	8d\ 8dd\J	.
4E'\	4g'\ 4gg'\	.
4E'\	4g'\ 4gg'\	.
=215	=215	=215
4E\ (4A#\	4g\ (4gg\	.
8D\ 8B\L)	8f#\ 8ff#\L)	.
8GG\J	8b\ 8bb\J	.
4Cn'/	4ee'\ 4eee'\	.
4CC'/ 4C'/	4ee'\ 4eee'\	.
=216	=216	=216
(4FF#/ 4C/	4ee\ (4eee\	.
8GG/) 8BB/L	8dd\ 8ddd\L)	.
8EE'/J	8g'\ 8gg'\J	.
4AA'/	4cc'\ 4ccc'\	.
4FF#'/ 4AA'/	4cc'\ 4ccc'\	.
=217	=217	=217
12DD/L	4..cc\ 4..ccc\	.
12AA/	.	.
12D/J	.	.
12F#/L	.	.
12D/	.	.
12AA/J	.	.
.	16d/	.
12DD/L	4cc'\	.
12AA/	.	.
12D/J	.	.
12F#/L	4cc'\	.
12D/	.	.
12AA/J	.	.
=218	=218	=218
*	*^	*
12DD/L	4r	[1cc	.
12AA/	.	.	.
12D/J	.	.	.
12F#/L	8r	.	.
12D/	.	.	.
.	16r	.	.
12AA/J	.	.	.
.	16dd/	.	.
12DD/L	4ccc/	.	.
12AA/	.	.	.
12D/J	.	.	.
12F#/L	4ccc'/	.	.
12D/	.	.	.
12AA/J	.	.	.
=219	=219	=219	=219
12DD/L	4..ccc/	4..cc\]	.
12AA/	.	.	.
12D/J	.	.	.
12F#/L	.	.	.
12D/	.	.	.
12AA/J	.	.	.
.	16r	16d/	.
12DD/L	2r	4cc'\	.
12AA/	.	.	.
12D/J	.	.	.
12F#/L	.	4cc'\	.
12D/	.	.	.
12AA/J	.	.	.
=220	=220	=220	=220
12DD/L	4r	[1cc	.
12AA/	.	.	.
12D/J	.	.	.
12F#/L	8r	.	.
12D/	.	.	.
.	16r	.	.
12AA/J	.	.	.
.	16dd/	.	.
12DD/L	4ccc'/	.	.
12AA/	.	.	.
12D/J	.	.	.
12F#/L	4ccc'/	.	.
12D/	.	.	.
12AA/J	.	.	.
=221	=221	=221	=221
4DD/	4..ccc/	4..cc\]	.
4r	.	.	.
.	16r	16d/	.
2r	2r	4cc'\	.
.	.	4cc'\	.
*	*v	*v	*
=222	=222	=222
1r	4..cc\	.
.	16d/	<
.	4cc#'\	.
.	4cc#'\	.
=223	=223	=223
1r	[1cc#	.
=224	=224	=224
1r	2cc#;\]	.
.	eeq/	.
.	(8dd\L	p
.	8cc#\	.
.	8dd\	.
.	8ee\J	.
=225	=225	=225
*^	*	*
4r	4r	4dd\)	.
4D/	(4C'\	(4F#'/ 4d'/	.
4D/	4BB'\	4G'/ 4e'/	.
4D/	4AA'\)	4A'/) 4f#'/	.
*v	*v	*	*
=226	=226	=226
2GG/ 2D/	2B/ 2g/	.
2r	2r	.
=227	=227	=227
*	*^	*
2r	2r	2.r	.
4r	(8b/L	.	p
.	8a/	.	.
4FF#/ 4D/	8g#/	4cn\	.
.	8a/J)	.	.
*	*v	*v	*
=228	=228	=228
(4GG'/ 4D'/	(4B'/ 4b'/	.
4GG'/ 4D'/	4B'/ 4gn'/	.
4FF#'/ 4D'/	4c#'/ 4g'/ 4cc#'/	.
4EE'/) 4D'/	4c#'/) 4g'/ 4a'/	.
=229	=229	=229
2DD/ 2D/	2d/ 2f#/ 2a/ 2dd/	.
2r	2r	.
=230	=230	=230
1r	2r	.
.	(eeq/	.
.	(8dd\L)	p
.	8cc#\	.
.	8dd\	.
.	8ee\J	.
=231	=231	=231
4r	4dd\)	<
(4DD'/ 4D'/	(4F#'/ 4cn'/ 4d'/	.
4DD'/ 4D'/	4G'/ 4c'/ 4e'/	.
4DD'/) 4D'/	4A'/) 4c'/ 4f#'/	.
=232	=232	=232
2EE/ 2E/	2G/ 2B/ 2g/	.
2r	2r	.
=233	=233	=233
*	*^	*
2r	2r	2.r	.
4r	(8b/L	.	p
.	8a/	.	.
4F#'\ (4c'\	8g#/	4d\	.
.	8a/J)	.	.
*	*v	*v	*
=234	=234	=234
4G'\ 4B'\	4d'/ 4b'/	.
4E'\ 4B'\)	4e'/ 4gn'/	.
2C\ 2A\	2e/ 2a/ 2cc/	.
=235	=235	=235
1DD 1D	2r	.
.	2d/ 2f#/ 2a/	<
=236	=236	=236
1BB 1D 1G 1B	1d 1g 1dd	.
=237	=237	=237
*	*^	*
2r	2r	2.r	.
4r	(8b/L	.	p
.	8a/	.	.
4F#'\ (4c'\	8g#/	4d\	.
.	8a/J)	.	.
*	*v	*v	*
=238	=238	=238
4G'\ 4B'\	4d'/ 4b'/	.
4E'\ 4B'\)	4e'/ 4gn'/	.
2C\ 2A\	2e/ 2a/ 2cc/	.
=239	=239	=239
(2.DD/	2r	pp
.	2d/ 2f#/ 2a/	.
8EE/L	.	.
8FF#/J	.	.
=240	=240	=240
4GG/	1r	.
4AA/	.	.
4BB/	.	.
8C/L	.	.
8BB/J)	.	.
=241	=241	=241
[1DD [1AA	1r	.
=242	=242	=242
1DD_ 1AA_	1r	.
=243	=243	=243
1DD_ 1AA_	2r	.
.	(8eee\L	f
.	8ddd\	.
.	8ccc#\	.
.	8ddd\J)	.
=244	=244	=244
*	*^	*
1DD_ 1AA_	(8ee/L	4f#\	.
.	8dd/	.	.
.	8cc#/	4r	.
.	8dd/J	.	.
.	(8eee/L)	2r	.
.	8ddd/	.	.
.	8ccc#/	.	.
.	8ddd/J)	.	.
=245	=245	=245	=245
1DD_ 1AA_	(8ee/L	4f#\	.
.	8dd/	.	.
.	8cc#/	4r	.
.	8dd/J	.	.
.	(8eee/L)	2r	.
.	8ddd/	.	.
.	8ccc#/	.	.
.	8ddd/J)	.	.
=246	=246	=246	=246
1DD_ 1AA_	(8ee/L	4f#\	.
.	8dd/	.	.
.	8cc#/	4r	.
.	8dd/J	.	.
.	(8ee/L)	4f#\	.
.	8dd/	.	.
.	8cc#/	4r	.
.	8dd/J)	.	.
=247	=247	=247	=247
1DD] 1AA]	(8ee/L	4f#\	.
.	8dd/	.	.
.	8cc#/	4r	.
.	8dd/J)	.	.
.	8ee/L	4f#\	.
.	8dd/	.	.
.	8cc#/	4r	.
.	8dd/J	.	.
=248	=248	=248	=248
4GGG/ 4GG/	4b/	4g\	.
4r	2.r	4r	.
*	*clefF4	*clefF4	*clefF4
8Fn\L	.	4r	.
8E-\	.	.	.
8D\	.	4G\ (4c#\	p
8E-\J	.	.	.
*	*v	*v	*
=249	=249	=249
4D\	4F#\ 4d\)	.
4r	4r	.
*clefG2	*clefG2	*clefG2
4r	(8een\L	.
.	8dd\	.
4d/ 4f#/	8cc#\	.
.	8dd\J	.
=250	=250	=250
4G/ 4g/	4b\)	.
4r	4r	.
*clefF4	*clefF4	*clefF4
8Fn\L	4r	.
8E-\	.	.
8D\	4G\ (4c#\	.
8E-\J	.	.
=251	=251	=251
4D\	4F#\ 4d\)	.
4r	4r	.
*clefG2	*clefG2	*clefG2
4r	(8eeen\L	.
.	8ddd\	.
4dd\ 4ff#\	8ccc#\	.
.	8ddd\J	.
=252	=252	=252
4g\ 4gg\	4bb\)	.
4r	4r	.
*clefF4	*	*
(8Fn\L	4r	.
8E-\	.	.
8D\	4G'/ 4c#'/	.
8E-\J	.	.
=253	=253	=253
8Fn\L	4r	.
8E-\	.	.
8D\	4c#'/ 4g'/	<
8E-\J	.	.
8F\L	4r	.
8E-\	.	.
8D\	4g'\ 4cc#'\	.
8E-\J	.	.
=254	=254	=254
8Fn\L	4r	.
8E-\	.	.
8D\	4cc#'\ 4gg'\	.
8E-\J	.	.
8F\L	4r	.
8E-\	.	.
8D\	4gg'\ 4ccc#'\	.
8E-\J	.	.
=255	=255	=255
8Fn\L	4r	.
8E-\	.	.
8D\	4gg'\ 4ccc#'\	.
8E-\J	.	.
8F\L	4r	.
8E-\	.	.
8D\	4gg'\ 4ccc#'\	.
8E-\J	.	.
=256	=256	=256
4DD/ 4D/)	8ff#\ 8eeen\L	f
.	8ddd\	.
2F#\	8ccc#\	.
.	8ddd\J	.
.	8eee\L	.
.	8ddd\	.
[4A\	8ccc#\	.
.	8ddd\J	.
=257	=257	=257
4A\]	8eee\L	.
.	8ddd\	.
2cn\	8ccc#\	.
.	8ddd\J	.
.	8eee\L	.
.	8ddd\	.
*clefG2	*	*
[4f#/	8ccc#\	.
.	8ddd\J	.
=258	=258	=258
4f#/]	8eee\L	.
.	8ddd\	.
4a'/	8ccc#\	.
.	8ddd\J	.
4ccn'\	8eee\L	.
.	8ddd\	.
4ff#'\	8ccc#\	.
.	8ddd\J	.
=259	=259	=259
4aa'\	8eee\L	.
.	8ddd\	.
4bb'\	8ccc#\	.
.	8ddd\J	.
4cccn'\	8eee\L	.
.	8ddd\	.
4ff#'\	8ccc#\	.
.	8ddd\J	.
=260	=260	=260
4gg'\	4bb\	p
4g'/	4r	.
4r	(8ee\L	.
.	8dd\	.
4d/	8cc#\	.
.	8dd\J)	.
*clefF4	*	*
=261	=261	=261
4r	4b'\	.
4G'\	4r	.
4r	(8e/L	.
.	8d/	.
4D'\	8c#/	.
.	8d/J	.
=262	=262	=262
4r	4B'/)	pp
4GG'/	4r	.
(8EE/L	2r	.
8DD/	.	.
8CC#/	.	.
8DD/J	.	.
=263	=263	=263
8EE/L	1r	.
8DD/	.	.
8CC#/	.	.
8DD/J	.	.
8EE/L	.	.
8DD/	.	.
8CC#/	.	.
8DD/J	.	.
=264	=264	=264
8EE/L	1r	.
8DD/	.	.
8CC#/	.	.
8DD/J	.	.
8EE/L	.	.
8DD/	.	.
8CC#/	.	.
8DD/J	.	.
=265	=265	=265
8EE/L	1r	.
8DD/	.	.
8CC#/	.	.
8DD/J	.	.
8EE/L	.	.
8DD/	.	.
8CC#/	.	.
8DD/J	.	.
=266	=266	=266
8EE/L	2r	.
8DD/	.	.
8CC#/	.	.
8DD/J)	.	.
2r	4ccn''\ 4ff#''\ 4aa''\ 4cccn''\	ff
.	4cc''\ 4ff#''\ 4aa''\ 4ccc''\	.
=267	=267	=267
(8EE/L	2r	ff
8DD/	.	.
8CC#/	.	.
8DD/J)	.	.
2r	4f#''\ 4ccn''\ 4ff#''\	.
.	4f#''\ 4cc''\ 4ff#''\	.
=268	=268	=268
4GGG''/ 4GG''/	2r	f
4GGG''/ 4GG''/	.	.
2r	4g''\ 4b''\ 4dd''\ 4gg''\	ff
.	4g\ 4b\ 4dd\ 4gg\	.
=269	=269	=269
1r	1r	.
=270	=270	=270
4GGG''/ 4GG''/	2r	f
4GGG''/ 4GG''/	.	.
2r	4d''/ 4g''/ 4b''/ 4dd''/	ff
.	4d''/ 4g''/ 4b''/ 4dd''/	.
=271	=271	=271
1r	1r	.
=272	=272	=272
4GGG'/ 4GG'/	2r	p
4r	.	.
2r	4B'/ 4d'/ 4g'/ 4b'/	p
.	4r	.
*	*clefF4	*clefF4
=273	=273	=273
4GGG'/ 4GG'/	2r	pp
4r	.	.
2r	4D'\ 4G'\ 4B'\ 4d'\	pp
.	4r	.
=274	=274	=274
4GGG'/ 4GG'/	2r	.
4r	.	.
4GGG'/ 4GG'/	4BB'\ 4D'\ 4G'\ 4B'\	.
4r	4r	.
=275	=275	=275
1r;	1r;	.
==	==	==
*-	*-	*-
!!!ENC: Craig Stuart Sapp
!!!END: 2008/02/19/
